16x16/apps/menulibre.svg

<svg height="16" width="16" xmlns="http://www.w3.org/2000/svg"><path d="m1.718 0h12.564a.71.71 0 0 1 .718.706v12.624c0 .392-.32.669-.718.669h-8.226l-1.556 2.001-1.556-2h-1.226c-.398 0-.718-.277-.718-.669v-12.625a.71.71 0 0 1 .718-.706z" fill="#f4f4f7"/><path d="m2.59 9a.596.596 0 0 0 -.59.59v2.821c0 .321.269.589.59.589h2.82c.321 0 .59-.268.59-.589v-2.821c0-.321-.269-.59-.59-.59z" fill="#188eee"/><path d="m3.365 6a.37.37 0 0 0 -.365.366v1.269a.37.37 0 0 0 .365.365h1.27a.37.37 0 0 0 .365-.365v-1.269a.37.37 0 0 0 -.365-.366zm0-4a.37.37 0 0 0 -.365.366v1.269a.37.37 0 0 0 .365.365h1.27a.37.37 0 0 0 .365-.365v-1.269a.37.37 0 0 0 -.365-.366z" fill="#898989"/><g fill="none" stroke-linecap="round" stroke-width="2"><path d="m8 7h4m-4-4h4" stroke="#898989"/><path d="m8 11h4" stroke="#188eee"/></g></svg>

<svg height="16" width="16" xmlns="http://www.w3.org/2000/svg">
    <path d="M1.718 0h12.564A.71.71 0 0 1 15 .706V13.33c0 .392-.32.669-.718.669H6.056L4.5 16l-1.556-2H1.718C1.32 14 1 13.723 1 13.331V.706A.71.71 0 0 1 1.718 0z" fill="#f4f4f7"/>
    <path d="M2.59 9a.596.596 0 0 0-.59.59v2.821c0 .321.269.589.59.589h2.82c.321 0 .59-.268.59-.589V9.59A.596.596 0 0 0 5.41 9z" fill="#188eee"/>
    <path d="M3.365 6A.37.37 0 0 0 3 6.366v1.269A.37.37 0 0 0 3.365 8h1.27A.37.37 0 0 0 5 7.635V6.366A.37.37 0 0 0 4.635 6zm0-4A.37.37 0 0 0 3 2.366v1.269A.37.37 0 0 0 3.365 4h1.27A.37.37 0 0 0 5 3.635V2.366A.37.37 0 0 0 4.635 2z" fill="#898989"/>
    <g fill="none" stroke-linecap="round" stroke-width="2">
        <path d="M8 7h4M8 3h4" stroke="#898989"/>
        <path d="M8 11h4" stroke="#188eee"/>
    </g>
</svg>
